X:830
T:Stirling Castle 
C:Joe Buchanan's Scottish Tome - Page 403.1
I:403 1
R:Strathspey
Z:Carl Allison
L:1/8
M:4/4
K:D
!segno!D2 F>A D>AF>A | A,2 C>E B,>EC>E | D2 F>A D>AF>A | ((3Bcd) ((3efg) ((3fed) ((3cBA) |
D2 F>A D>AF>A | A,2 C>E B,>EC>E | D2 F>A D>AF>A | ((3Bcd) ((3efg) f<d !fine!d |]
A | d2 f>d g>ef>d | B2 c>d ((3efd) ((3cBA) | d2 f>d g>ef>d | ((3Bcd) ((3efg) f<dd>A |
d<df>d g>ef>d | B2 c>d ((3efd) ((3cBA) | ((3Bcd) ((3efg) ((3fed) ((3cBA) | ((3GAB) ((3ABc) ((3dAG) ((3FG!segno!E) :|

